X:415
T:B415-  Sefautian's Farewell
Q:1/4=120
L:1/4
M:3/4
K:Dm
f2g|e2(e/4f/4g/)|f3/2e/d|^cea|\
f2b|e2a|f3/2e/d|d3::\
f3/2e/ (d/4e/4f/)|e2A|d3/2d/ (=B/4c/4B/)|^c3/2d/e|\
f3/2e/ (d/4e/4f/)|ge(d/c/)|(f3/4g/4)g3/2(f/4g/4)|a3|\
a3/2g/ (f/4g/4a/)|g3|g3/2f/ (e/4f/4g/)|f2e|\
d^cd|efg|(a/e/)e3/2d/|d3|]
